**harm	**harte	**timestamp	**phrase	**leadinstrument	**kern
*M4/4	*M4/4	*	*	*	*
*b:	*b:	*	*	*	*b:
1r;	N	0	.	r	1r;
=1	=1	=1	=1	=1	=1
*>A_intro	*>A_intro	*>A_intro	*>A_intro	*>A_intro	*>A_intro
2.i	B:1	0.441	newline	drums	2B 2dd 2ff#
4-VII	A:1	2.385	.	drums	4A 4cc# 4ee
=2	=2	=2	=2	=2	=2
2.i	B:1	3.033	.	drums	2B 2dd 2ff#
4-VII	A:1	4.978	.	drums	4A 4cc# 4ee
=3	=3	=3	=3	=3	=3
2.i	B:1	5.626	.	drums	2B 2dd 2ff#
4-VII	A:1	7.57	.	drums	4A 4cc# 4ee
=4	=4	=4	=4	=4	=4
2.i	B:1	8.218	.	drums	2B 2dd 2ff#
4-VII	A:1	10.162	.	drums	4A 4cc# 4ee
=5	=5	=5	=5	=5	=5
*>B_verse	*>B_verse	*>B_verse	*>B_verse	*>B_verse	*>B_verse
1iv	E:sus4(b7,9,13)	10.81	newline	voice	1E 1g 1b
=6	=6	=6	=6	=6	=6
1iv	E:sus4(b7,9,13)	13.347	.	voice	1E 1g 1b
=7	=7	=7	=7	=7	=7
2.i	B:1	15.883	.	voice	2B 2dd 2ff#
4-VII	A:1	17.786	.	voice	4A 4cc# 4ee
=8	=8	=8	=8	=8	=8
2.i	B:1	18.42	.	voice	2B 2dd 2ff#
4-VII	A:1	20.323	.	voice	4A 4cc# 4ee
=9	=9	=9	=9	=9	=9
1iv	E:sus4(b7,9,13)	20.957	newline	voice	1E 1g 1b
=10	=10	=10	=10	=10	=10
1iv	E:sus4(b7,9,13)	23.494	.	voice	1E 1g 1b
=11	=11	=11	=11	=11	=11
2.i	B:1	26.032	.	voice	2B 2dd 2ff#
4-VII	A:1	27.935	.	voice	4A 4cc# 4ee
=12	=12	=12	=12	=12	=12
2.i	B:1	28.569	.	voice	2B 2dd 2ff#
4-VII	A:1	30.473	.	voice	4A 4cc# 4ee
=13	=13	=13	=13	=13	=13
1iv	E:sus4(b7,9,13)	31.107	newline	voice	1E 1g 1b
=14	=14	=14	=14	=14	=14
2iv	E:sus4(b7,9,13)	33.624	.	voice	2E 2g 2b
4ii7b	C#:min7/b3	34.882	.	voice	4c# 4E 4g# 4b
4iv	E:sus4(b7,9,13)	35.511	.	voice	4E 4g 4b
=15	=15	=15	=15	=15	=15
2.i	B:1	36.14	.	voice	2B 2dd 2ff#
4-VII	A:1	38.028	.	voice	4A 4cc# 4ee
=16	=16	=16	=16	=16	=16
2.i	B:1	38.657	.	voice	2B 2dd 2ff#
4-VII	A:1	40.544	.	voice	4A 4cc# 4ee
=17	=17	=17	=17	=17	=17
1iv	E:sus4(b7,9,13)	41.174	newline	voice	1E 1g 1b
=18	=18	=18	=18	=18	=18
2iv	E:sus4(b7,9,13)	43.708	.	voice	2E 2g 2b
4ii7b	C#:min7/b3	44.975	.	voice	4c# 4E 4g# 4b
4iv	E:sus4(b7,9,13)	45.609	.	voice	4E 4g 4b
=19	=19	=19	=19	=19	=19
2.i	B:1	46.242	.	voice	2B 2dd 2ff#
4-VII	A:1	48.143	.	voice	4A 4cc# 4ee
=20	=20	=20	=20	=20	=20
2.i	B:1	48.777	.	voice	2B 2dd 2ff#
4-VII	A:1	50.677	.	voice	4A 4cc# 4ee
=21	=21	=21	=21	=21	=21
*>C_chorus	*>C_chorus	*>C_chorus	*>C_chorus	*>C_chorus	*>C_chorus
2i	B:min	51.311	newline	voice	2B 2dd 2ff#
2-VIIb	A:maj/3	52.58	.	voice	2a 2C# 2ee
=22	=22	=22	=22	=22	=22
2-III	D:maj	53.849	.	voice	2D- 2f 2a-
2-VIIb	A:maj/3	55.118	.	voice	2a 2C# 2ee
=23	=23	=23	=23	=23	=23
2i	B:min	56.388	.	voice	2B 2dd 2ff#
2-VIIb	A:maj/3	57.657	.	voice	2a 2C# 2ee
=24	=24	=24	=24	=24	=24
2-III	D:maj	58.926	.	voice	2D- 2f 2a-
2-VIIb	A:maj/3	60.195	.	voice	2a 2C# 2ee
=25	=25	=25	=25	=25	=25
1-VI7	G:maj7	61.464	newline	voice	1G- 1b- 1dd- 1ff#
=26	=26	=26	=26	=26	=26
1-VII	A:maj6	63.999	.	voice	1A 1cc# 1ee
=27	=27	=27	=27	=27	=27
1i7	B:min7	66.534	.	voice	1B 1dd 1ff# 1aa#
=28	=28	=28	=28	=28	=28
1i7	B:min7	69.069	.	voice	1B 1dd 1ff# 1aa#
=29	=29	=29	=29	=29	=29
1-VI7	G:maj7	71.604	newline	voice	1G- 1b- 1dd- 1ff#
=30	=30	=30	=30	=30	=30
1-VII	A:maj6	74.131	.	voice	1A 1cc# 1ee
=31	=31	=31	=31	=31	=31
1iv	E:sus4(b7,9)	76.658	.	voice	1E 1g 1b
=32	=32	=32	=32	=32	=32
1iv	E:sus4(b7,9)	79.184	.	voice	1E 1g 1b
=33	=33	=33	=33	=33	=33
*>A_trans	*>A_trans	*>A_trans	*>A_trans	*>A_trans	*>A_trans
2.i	B:1	81.711	newline	guitar	2B 2dd 2ff#
4-VII	A:1	83.616	.	guitar	4A 4cc# 4ee
=34	=34	=34	=34	=34	=34
2.i	B:1	84.251	.	guitar	2B 2dd 2ff#
4-VII	A:1	86.156	.	guitar	4A 4cc# 4ee
=35	=35	=35	=35	=35	=35
*>B_verse	*>B_verse	*>B_verse	*>B_verse	*>B_verse	*>B_verse
1iv	E:sus4(b7,9,13)	86.791	newline	voice	1E 1g 1b
=36	=36	=36	=36	=36	=36
1iv	E:sus4(b7,9,13)	89.317	.	voice	1E 1g 1b
=37	=37	=37	=37	=37	=37
2.i	B:1	91.844	.	voice	2B 2dd 2ff#
4-VII	A:1	93.738	.	voice	4A 4cc# 4ee
=38	=38	=38	=38	=38	=38
2.i	B:1	94.37	.	voice	2B 2dd 2ff#
4-VII	A:1	96.264	.	voice	4A 4cc# 4ee
=39	=39	=39	=39	=39	=39
1iv	E:sus4(b7,9,13)	96.896	newline	voice	1E 1g 1b
=40	=40	=40	=40	=40	=40
1iv	E:sus4(b7,9,13)	99.442	.	voice	1E 1g 1b
=41	=41	=41	=41	=41	=41
2.i	B:1	101.988	.	voice	2B 2dd 2ff#
4-VII	A:1	103.897	.	voice	4A 4cc# 4ee
=42	=42	=42	=42	=42	=42
2.i	B:1	104.534	.	voice	2B 2dd 2ff#
4-VII	A:1	106.443	.	voice	4A 4cc# 4ee
=43	=43	=43	=43	=43	=43
2.iv	E:sus4(b7,9,13)	107.08	newline	voice	2E 2g 2b
4ii7b	C#:min7/b3	108.973	.	voice	4c# 4E 4g# 4b
=44	=44	=44	=44	=44	=44
2.iv	E:sus4(b7,9,13)	109.604	.	voice	2E 2g 2b
4ii7b	C#:min7/b3	111.497	.	voice	4c# 4E 4g# 4b
=45	=45	=45	=45	=45	=45
2.i	B:1	112.128	.	voice	2B 2dd 2ff#
4-VII	A:1	114.021	.	voice	4A 4cc# 4ee
=46	=46	=46	=46	=46	=46
2.i	B:1	114.652	.	voice	2B 2dd 2ff#
4-VII	A:1	116.545	.	voice	4A 4cc# 4ee
=47	=47	=47	=47	=47	=47
*>C_chorus	*>C_chorus	*>C_chorus	*>C_chorus	*>C_chorus	*>C_chorus
2i	B:min	117.176	newline	voice	2B 2dd 2ff#
2-VIIb	A:maj/3	118.445	.	voice	2a 2C# 2ee
=48	=48	=48	=48	=48	=48
2-III	D:maj	119.715	.	voice	2D- 2f 2a-
2-VIIb	A:maj/3	120.985	.	voice	2a 2C# 2ee
=49	=49	=49	=49	=49	=49
2i	B:min	122.254	.	voice	2B 2dd 2ff#
2-VIIb	A:maj/3	123.524	.	voice	2a 2C# 2ee
=50	=50	=50	=50	=50	=50
2-III	D:maj	124.794	.	voice	2D- 2f 2a-
2-VIIb	A:maj/3	126.063	.	voice	2a 2C# 2ee
=51	=51	=51	=51	=51	=51
1-VI7	G:maj7	127.333	newline	voice	1G- 1b- 1dd- 1ff#
=52	=52	=52	=52	=52	=52
1-VII	A:maj6	129.866	.	voice	1A 1cc# 1ee
=53	=53	=53	=53	=53	=53
1i7	B:min7	132.399	.	voice	1B 1dd 1ff# 1aa#
=54	=54	=54	=54	=54	=54
1i7	B:min7	134.932	.	voice	1B 1dd 1ff# 1aa#
=55	=55	=55	=55	=55	=55
1-VI7	G:maj7	137.465	newline	voice	1G- 1b- 1dd- 1ff#
=56	=56	=56	=56	=56	=56
1-VII	A:maj6	140.002	.	voice	1A 1cc# 1ee
=57	=57	=57	=57	=57	=57
1iv	E:sus4(b7,9)	142.539	.	voice	1E 1g 1b
=58	=58	=58	=58	=58	=58
1iv	E:sus4(b7,9)	145.075	.	voice	1E 1g 1b
=59	=59	=59	=59	=59	=59
*>D_interlude	*>D_interlude	*>D_interlude	*>D_interlude	*>D_interlude	*>D_interlude
1r	N	147.612	newline	drums	1r
=60	=60	=60	=60	=60	=60
1r	N	150.124	.	drums	1r
=61	=61	=61	=61	=61	=61
1i	B:5	152.636	newline	guitar	1B 1dd 1ff#
=62	=62	=62	=62	=62	=62
1r	N	155.171	.	guitar	1r
=63	=63	=63	=63	=63	=63
1i	B:5	157.707	.	guitar	1B 1dd 1ff#
=64	=64	=64	=64	=64	=64
1r	N	160.243	.	guitar	1r
=65	=65	=65	=65	=65	=65
1r	N	162.778	newline	guitar	1r
=66	=66	=66	=66	=66	=66
1i	B:5	165.318	.	guitar	1B 1dd 1ff#
=67	=67	=67	=67	=67	=67
1r	N	167.857	.	guitar	1r
=68	=68	=68	=68	=68	=68
*>C_chorus	*>C_chorus	*>C_chorus	*>C_chorus	*>C_chorus	*>C_chorus
2iv7	E:min7	170.396	newline	voice	2E 2g 2b 2dd
2-IIIb	D:maj(9)/3	171.666	.	voice	2d- 2F 2a-
=69	=69	=69	=69	=69	=69
2ivb	E:min/b3	172.936	.	voice	2e 2G 2b
2-VII	A:maj	174.206	.	voice	2A 2cc# 2ee
=70	=70	=70	=70	=70	=70
2iv7	E:min7	175.476	.	voice	2E 2g 2b 2dd
2-IIIb	D:maj(9)/3	176.746	.	voice	2d- 2F 2a-
=71	=71	=71	=71	=71	=71
2ivb	E:min/b3	178.016	.	voice	2e 2G 2b
2-VII	A:maj	179.286	.	voice	2A 2cc# 2ee
=72	=72	=72	=72	=72	=72
1iv7	E:min7	180.556	newline	voice	1E 1g 1b 1dd
=73	=73	=73	=73	=73	=73
1v7	F#:min7	183.077	.	voice	1F# 1a 1cc# 1ee
=74	=74	=74	=74	=74	=74
1i7	B:min7	185.598	.	voice	1B 1dd 1ff# 1aa#
=75	=75	=75	=75	=75	=75
1i7	B:min7	188.119	.	voice	1B 1dd 1ff# 1aa#
=76	=76	=76	=76	=76	=76
1-VI7	G:maj7	190.64	newline	voice	1G- 1b- 1dd- 1ff#
=77	=77	=77	=77	=77	=77
1-VII	A:maj6	193.171	.	voice	1A 1cc# 1ee
=78	=78	=78	=78	=78	=78
1i7	B:min7	195.701	.	voice	1B 1dd 1ff# 1aa#
=79	=79	=79	=79	=79	=79
1i7	B:min7	198.231	.	voice	1B 1dd 1ff# 1aa#
=80	=80	=80	=80	=80	=80
1-VI7	G:maj7	200.761	newline	voice	1G- 1b- 1dd- 1ff#
=81	=81	=81	=81	=81	=81
1-VII	A:maj6	203.301	.	voice	1A 1cc# 1ee
=82	=82	=82	=82	=82	=82
1i7	B:min7	205.84	.	voice	1B 1dd 1ff# 1aa#
=83	=83	=83	=83	=83	=83
1i7	B:min7	208.38	.	voice	1B 1dd 1ff# 1aa#
=84	=84	=84	=84	=84	=84
1-VI7	G:maj7	210.919	newline	voice	1G- 1b- 1dd- 1ff#
=85	=85	=85	=85	=85	=85
1-VII	A:maj6	213.451	.	voice	1A 1cc# 1ee
=86	=86	=86	=86	=86	=86
2iv	E:sus4(b7,9)	215.983	.	voice	2E 2g 2b
2IV7	E:9	217.249	.	voice	2E 2g# 2b 2dd
=87	=87	=87	=87	=87	=87
2iv	E:sus4(b7,9)	218.515	.	voice	2E 2g 2b
2IV7	E:9	219.781	.	voice	2E 2g# 2b 2dd
=88	=88	=88	=88	=88	=88
*>A_trans	*>A_trans	*>A_trans	*>A_trans	*>A_trans	*>A_trans
2.i	B:1	221.048	newline	guitar	2B 2dd 2ff#
4-VII	A:1	222.946	.	guitar	4A 4cc# 4ee
=89	=89	=89	=89	=89	=89
2.i	B:1	223.579	.	guitar	2B 2dd 2ff#
4-VII	A:1	225.477	.	guitar	4A 4cc# 4ee
=90	=90	=90	=90	=90	=90
*>B_verse	*>B_verse	*>B_verse	*>B_verse	*>B_verse	*>B_verse
1iv	E:sus4(b7,9,13)	226.11	newline	voice	1E 1g 1b
=91	=91	=91	=91	=91	=91
1iv	E:sus4(b7,9,13)	228.641	.	voice	1E 1g 1b
=92	=92	=92	=92	=92	=92
2.i	B:1	231.173	.	voice	2B 2dd 2ff#
4-VII	A:1	233.071	.	voice	4A 4cc# 4ee
=93	=93	=93	=93	=93	=93
2.i	B:1	233.704	.	voice	2B 2dd 2ff#
4-VII	A:1	235.603	.	voice	4A 4cc# 4ee
=94	=94	=94	=94	=94	=94
1iv	E:sus4(b7,9,13)	236.235	newline	voice	1E 1g 1b
=95	=95	=95	=95	=95	=95
1iv	E:sus4(b7,9,13)	238.776	.	voice	1E 1g 1b
=96	=96	=96	=96	=96	=96
2.i	B:1	241.318	.	voice	2B 2dd 2ff#
4-VII	A:1	243.223	.	voice	4A 4cc# 4ee
=97	=97	=97	=97	=97	=97
2.i	B:1	243.859	.	voice	2B 2dd 2ff#
4-VII	A:1	245.764	.	voice	4A 4cc# 4ee
=98	=98	=98	=98	=98	=98
1iv	E:sus4(b7,9,13)	246.4	newline	voice	1E 1g 1b
=99	=99	=99	=99	=99	=99
4iv	E:sus4(b7,9,13)	248.929	.	voice	4E 4g 4b
4ii7b	C#:min7/b3	249.561	.	voice	4c# 4E 4g# 4b
4iv	E:sus4(b7,9,13)	250.193	.	voice	4E 4g 4b
4ii7b	C#:min7/b3	250.826	.	voice	4c# 4E 4g# 4b
=100	=100	=100	=100	=100	=100
2.i	B:1	251.458	.	voice	2B 2dd 2ff#
4-VII	A:1	253.355	.	voice	4A 4cc# 4ee
=101	=101	=101	=101	=101	=101
2.i	B:1	253.987	.	voice	2B 2dd 2ff#
4-VII	A:1	255.884	.	voice	4A 4cc# 4ee
=102	=102	=102	=102	=102	=102
1iv	E:sus4(b7,9,13)	256.516	newline	voice	1E 1g 1b
=103	=103	=103	=103	=103	=103
4iv	E:sus4(b7,9,13)	259.056	.	voice	4E 4g 4b
4ii7b	C#:min7/b3	259.691	.	voice	4c# 4E 4g# 4b
4iv	E:sus4(b7,9,13)	260.326	.	voice	4E 4g 4b
4ii7b	C#:min7/b3	260.961	.	voice	4c# 4E 4g# 4b
=104	=104	=104	=104	=104	=104
2.i	B:1	261.596	.	voice	2B 2dd 2ff#
4-VII	A:1	263.5	.	voice	4A 4cc# 4ee
=105	=105	=105	=105	=105	=105
2.i	B:1	264.135	.	voice	2B 2dd 2ff#
4-VII	A:1	266.04	.	voice	4A 4cc# 4ee
=106	=106	=106	=106	=106	=106
*>_fadeout	*>_fadeout	*>_fadeout	*>_fadeout	*>_fadeout	*>_fadeout
1iv	E:sus4(b7,9,13)	266.675	newline	guitar	1E 1g 1b
=107	=107	=107	=107	=107	=107
1iv	E:sus4(b7,9,13)	268.888	.	guitar	1E 1g 1b
=108	=108	=108	=108	=108	=108
2.i	B:1	271.102	.	guitar	2B 2dd 2ff#
4-VII	A:1	272.762	.	guitar	4A 4cc# 4ee
=109	=109	=109	=109	=109	=109
2.i	B:1	273.315	.	guitar	2B 2dd 2ff#
4-VII	A:1	274.975	.	guitar	4A 4cc# 4ee
1r;	N	275.528	.	r	1r;
1r;	N	278.047	.	r	1r;
*-	*-	*-	*-	*-	*-
!!!OTL: Flesh For Fantasy
!!!COC: Billy Idol
!!!BillboardChartDate: 1984/09/15
!!!BillboardPeak: 29
!!!BillboardWeeksOnChart: 12
!!!SampleTargetRank: 39
!!!SampleActualRank: 39
!!!SampleID#: 0464
!!!RDF**harmony: **recip + pitch class of root + harmonic quality
!!!RDF**harte: Chris Harte's syntax, used by MIREX
!!!RDF**phrase: newline = linebreak in original McGill transcription
!!!RDF**timestamp: McGill audio timestamp in seconds
!!!RDF**leadinstrument: original McGill primary instrumentation annotation
!!!RDT: 2017/01/12/
!!!ENC: Nathaniel Condit-Schultz
!!!EST: Awating manual error checking and editing.
